!!!ONB: MCCC : IWM0403_01 : Extracted Monophonic Melody
!!!COM: Mozart, Wolfgang Amadeus
!!!OPR: Piano Sonata No.3
!!!OMV: 1
!!!SCT: K.281 ; K⁶.189f
!!!ODT: 1774///
**kern
*thru
*staff1
*>A
*clefG2
*k[b-e-]
*B-:
*M2/4
*MM84
=1
8.b-
32cc
32dd
24b-
24a
24cc
24b-
24a
24ee-
=2
24cc
24b-
24dd
24cc
24b-
24ff
8dd
8r
=3
8gg:
8ff:
32ff
32bb-
32aa
32bb-
32ddd
32bb-
32aa
32bb-
=4
8ee-
8dd
4r
=5
8.B-
32c
32d
24B-
24A
24c
24B-
24A
24e-
=6
24c
24B-
24d
24c
24B-
24f
8d
8r
=7
24g
24cc
24ee-
24cc
24ee-
24gg
32gg
32ff
32ee-
32dd
32dd
32cc
32b-
32a
=8
4b-
16r
16b-
16a
16a-
=9
16g
32a
32b-
32cc
32dd
32ee-
32ff
32gg
32aa
32bb-
32aa
32bb-
32aa
32bb-
32gg
=10
4ff
16r
16b-
16a
16a-
=11
16g
32a
32b-
32cc
32dd
32ee-
32ff
32gg
32aa
32bb-
32aa
32bb-
32aa
32bb-
32gg
=12
8ff
32r
32bb-
32ccc
32bb-
32ddd
32ccc
32bb-
32aa
32gg
32ff
32ee-
32dd
=13
8ee-
32r
32aa
32bb-
32aa
32ccc
32bb-
32aa
32gg
32ff
32ee-
32dd
32cc
=14
8dd
32r
32ff
32gg
32ff
32bb-
32aa
32gg
32ff
32ee-
32dd
32cc
32b
=15
32dd
32cc
32ee-
32dd
32ff
32ee-
32gg
32ff#
32gg
32ff
32ee-
32dd
32cc
32b-
32a
32b-
=16
32a
32b-
32cc
32dd
32ee
32ff
32ee
32ff
8f
8r
=17
8r
16r
16ccc
16ccc
16ccc
16ccc
16ccc
=18
8.ccc
32bb-
32aa
16gg
16ff
16ee
16gg
=19
8ff
16r
16ccc
16ccc
16ccc
16ccc
16ccc
=20
8.ccc
32bb-
32aa
16gg
16aa
16bb-
16gg
=21
8aa
16r
16ccc
16ccc
16ccc
16ccc
16ccc#
=22
32ddd
32dd
32cc#
32dd
32ee-
32dd
32ee
32dd
32ff
32dd
32ff#
32dd
32gg
32dd
32aa
32dd
=23
4bb-
16.r
32bb-
16.bb-
64aa
64bb-
=24
32ccc
32cc
32b
32cc
32dd-
32cc
32dd
32cc
32ee-
32cc
32ee
32cc
32ff
32cc
32gg
32cc
=25
4aa
16.r
32aa
16.aa
64gg
64aa
=26
32bb-
32b-
32a
32b-
32cc
32b-
32dd-
32b-
32dd
32b-
32ee
32b-
32ff
32b-
32ff#
32b-
=27
8gg
16r
16bb-
16aa
16gg
16ff
16ee
=28
16gg
16ff
16r
16ccc
16bb-
16aa
16gg
16ff#
=29
16.gg
32aa
32ccc
32bb-
32aa
32gg
8ff
8ee
=30
32r
32ff
32ee
32ff
32r
32cc
32b
32cc
32r
32a
32g#
32a
32r
32f
32e
32f
=31
8ee
16r
16bb-
16aa
16gg
16ff
16ee
=32
16gg
16ff
16r
16ccc
16bb-
16aa
16gg
16ff#
=33
16.gg
32aa
32aa
32bb-
32ccc
32ddd
8ff
8gg
=34
16r
32ccc
32aa
32ff
32cc
32a
32f
[4e-
=35
16e-]
16d
16r
16dd
16r
16cc
16r
16e
=36
16r
32ccc
32aa
32ff
32cc
32a
32f
[4e-
=37
16e-]
16d
16r
16dd
16r
16cc
16r
16e
=38
8f
16r
16a
16g
16g
16r
16b-
=39
16a
16a
16r
16aa
16gg
16gg
16r
16bb-
=40
4bb-
8aa
8r
=41
*>A
*M2/4
8.b-
32cc
32dd
24b-
24a
24cc
24b-
24a
24ee-
=42
24cc
24b-
24dd
24cc
24b-
24ff
8dd
8r
=43
8gg:
8ff:
32ff
32bb-
32aa
32bb-
32ddd
32bb-
32aa
32bb-
=44
8ee-
8dd
4r
=45
8.B-
32c
32d
24B-
24A
24c
24B-
24A
24e-
=46
24c
24B-
24d
24c
24B-
24f
8d
8r
=47
24g
24cc
24ee-
24cc
24ee-
24gg
32gg
32ff
32ee-
32dd
32dd
32cc
32b-
32a
=48
4b-
16r
16b-
16a
16a-
=49
16g
32a
32b-
32cc
32dd
32ee-
32ff
32gg
32aa
32bb-
32aa
32bb-
32aa
32bb-
32gg
=50
4ff
16r
16b-
16a
16a-
=51
16g
32a
32b-
32cc
32dd
32ee-
32ff
32gg
32aa
32bb-
32aa
32bb-
32aa
32bb-
32gg
=52
8ff
32r
32bb-
32ccc
32bb-
32ddd
32ccc
32bb-
32aa
32gg
32ff
32ee-
32dd
=53
8ee-
32r
32aa
32bb-
32aa
32ccc
32bb-
32aa
32gg
32ff
32ee-
32dd
32cc
=54
8dd
32r
32ff
32gg
32ff
32bb-
32aa
32gg
32ff
32ee-
32dd
32cc
32b
=55
32dd
32cc
32ee-
32dd
32ff
32ee-
32gg
32ff#
32gg
32ff
32ee-
32dd
32cc
32b-
32a
32b-
=56
32a
32b-
32cc
32dd
32ee
32ff
32ee
32ff
8f
8r
=57
8r
16r
16ccc
16ccc
16ccc
16ccc
16ccc
=58
8.ccc
32bb-
32aa
16gg
16ff
16ee
16gg
=59
8ff
16r
16ccc
16ccc
16ccc
16ccc
16ccc
=60
8.ccc
32bb-
32aa
16gg
16aa
16bb-
16gg
=61
8aa
16r
16ccc
16ccc
16ccc
16ccc
16ccc#
=62
32ddd
32dd
32cc#
32dd
32ee-
32dd
32ee
32dd
32ff
32dd
32ff#
32dd
32gg
32dd
32aa
32dd
=63
4bb-
16.r
32bb-
16.bb-
64aa
64bb-
=64
32ccc
32cc
32b
32cc
32dd-
32cc
32dd
32cc
32ee-
32cc
32ee
32cc
32ff
32cc
32gg
32cc
=65
4aa
16.r
32aa
16.aa
64gg
64aa
=66
32bb-
32b-
32a
32b-
32cc
32b-
32dd-
32b-
32dd
32b-
32ee
32b-
32ff
32b-
32ff#
32b-
=67
8gg
16r
16bb-
16aa
16gg
16ff
16ee
=68
16gg
16ff
16r
16ccc
16bb-
16aa
16gg
16ff#
=69
16.gg
32aa
32ccc
32bb-
32aa
32gg
8ff
8ee
=70
32r
32ff
32ee
32ff
32r
32cc
32b
32cc
32r
32a
32g#
32a
32r
32f
32e
32f
=71
8ee
16r
16bb-
16aa
16gg
16ff
16ee
=72
16gg
16ff
16r
16ccc
16bb-
16aa
16gg
16ff#
=73
16.gg
32aa
32aa
32bb-
32ccc
32ddd
8ff
8gg
=74
16r
32ccc
32aa
32ff
32cc
32a
32f
[4e-
=75
16e-]
16d
16r
16dd
16r
16cc
16r
16e
=76
16r
32ccc
32aa
32ff
32cc
32a
32f
[4e-
=77
16e-]
16d
16r
16dd
16r
16cc
16r
16e
=78
8f
16r
16a
16g
16g
16r
16b-
=79
16a
16a
16r
16aa
16gg
16gg
16r
16bb-
=80
4bb-
8aa
8r
=81
*>B
[4cc
16cc]
16ff
16ee
16dd
=82
16dd
16cc
16r
16cc
16b
16cc
16dd
16cc
=83
16cc
16b-
16r
16b-
16b-
16a
16r
16a
=84
16a
16g
16b-
16g
16e
16f
8r
=85
8.f
32g
32a
24f
24e
24g
24f
24e
24b-
=86
24g
24f
24a
24g
24f
24cc
8a
8r
=87
24g
24b-
24dd
24gg
24bb-
24ddd
32ddd
32ccc
32bb-
32aa
32aa
32gg
32ff
32ee
=88
4ff
4r
=89
24r
24aa
24bb-
*Xtuplet
24ccc
24ff#
24gg
24aa
24cc
24dd
24ee-
24a
24cc
=90
4b-
4r
=91
24r
24dd
24ee-
24ff
24b
24cc
24dd
24f
24g
24a-
24d
24f
=92
4e
4r
=93
24r
24bb-
24aa
24bb-
24aa
24bb-
24r
24b-
24a
24b-
24a
24b-
=94
8a
8ee-:
4r
=95
32dd
32gg
32ff#
32gg
32aa
32gg
32ff#
32gg
32bb-
32gg
32ff#
32gg
32ee-
32gg
32ff#
32gg
=96
32dd
32gg
32ff#
32gg
32aa
32gg
32ff#
32gg
32bb-
32gg
32ff#
32gg
32cc
32gg
32ff#
32gg
=97
16b-
16gg
16b
16ff
16cc
8ee-
16dd
=98
8.ee-
32dd
32cc
8b-
8a
=99
16b-
16gg
16b
16ff
16cc
8ee-
16dd
=100
8.ee-
32dd
32cc
8b-
8a
=101
8g
16r
16g
8b-
16r
16b-
=102
8ee-
16r
16ee-
8gg
16r
16gg
=103
32aa-
32bb-
32aa-
32gg
32ff
32gg
32ff
32ee-
32dd
32ee-
32dd
32cc
32b-
32cc
32b-
32a-
=104
32r
32g
32a-
32g
32r
32b-
32cc
32b-
32r
32ee-
32ff
32ee-
32r
32gg
32aa-
32gg
=105
32aa-
32bb-
32aa-
32gg
32ff
32gg
32ff
32ee-
32dd
32ee-
32dd
32cc
32b-
32cc
32b-
32a-
=106
32g
32a
32b-
32a
32b-
32b
32cc
32b
32cc
32dd
32ee-
32dd
32ee-
32ff#
32gg
32ff#
=107
32gg
32aa
32bb-
32aa
32bb-
32aa
32bb-
32aa
8bb-
8ee:
=108
8ff:
*tuplet
16r
48bb-
48gg
48ee
8ff
16r
48bb-
48gg
48ee
=109
8ff
16r
32ff#
32gg
32ee
32ff
32dd
32ee-
32cc#
32dd
32b
32cc
=110
8.b-
32cc
32dd
24b-
24a
24cc
24b-
24a
24ee-
=111
24cc
24b-
24dd
24cc
24b-
24ff
8dd
8r
=112
8gg:
8ff:
32ff
32bb-
32aa
32bb-
32ddd
32bb-
32aa
32bb-
=113
8ee-
8dd
4r
=114
8.B-
32c
32d
24B-
24A
24c
24B-
24A
24e-
=115
24c
24B-
24d
24c
24B-
24f
8d
8r
=116
24g
24cc
24ee-
24cc
24ee-
24gg
32gg
32ff
32ee-
32dd
32dd
32cc
32b-
32a
=117
4b-
16r
16b-
16a
16a-
=118
16g
32a
32b-
32cc
32dd
32ee-
32ff
32gg
32aa
32bb-
32aa
32bb-
32aa
32bb-
32gg
=119
4ff
16r
16b-
16a
16a-
=120
16g
32a
32b-
32cc
32dd
32ee-
32ff
32gg
32aa
32bb-
32aa
32bb-
32aa
32bb-
32gg
=121
8ff
32r
32bb-
32ccc
32bb-
32ddd
32ccc
32bb-
32aa
32gg
32ff
32ee-
32dd
=122
8ee-
32r
32aa
32bb-
32aa
32ccc
32bb-
32aa
32gg
32ff
32ee-
32dd
32cc
=123
8dd
32r
32ff
32gg
32ff
32bb-
32aa
32gg
32ff
32ee-
32dd
32cc
32b
=124
32dd
32cc
32ee-
32dd
32ff
32ee-
32gg
32ff#
32gg
32ff
32ee-
32dd
32cc
32b-
32a
32b-
=125
32a
32b-
32cc
32dd
32ee
32ff
32ee
32ff
8f
8r
=126
8r
16r
16ff
16ff
16ff
16ff
16ff
=127
8.ff
32ee-
32dd
16cc
16b-
16a
16cc
=128
8b-
16r
16ff
16ff
16ff
16ff
16ff
=129
8.ff
32ee-
32dd
16cc
16dd
16ee-
16cc
=130
8dd
16r
16ff
16ff
16ff
16ff
16ff#
=131
32gg
32g
32f#
32g
32a-
32g
32a
32g
32b-
32g
32b
32g
32cc
32g
32dd
32g
=132
4ee-
16.r
32ee-
16.ee-
64dd
64ee-
=133
32ff
32f
32e
32f
32g
32f
32a-
32f
32a
32f
32b-
32f
32cc
32f
32cc#
32f
=134
4dd
16.r
32ddd
16.ddd
64ccc
64ddd
=135
32eee-
32ee-
32dd
32ee-
32ff
32ee-
32gg-
32ee-
32gg
32ee-
32aa
32ee-
32bb-
32ee-
32bb
32ee-
=136
8ccc
16r
16eee-
16ddd
16ccc
16bb-
16aa
=137
16ccc
16bb-
16r
16fff
16eee-
16ddd
16ccc
16bb
=138
16.ccc
32ddd
32fff
32eee-
32ddd
32ccc
8bb-
8aa
=139
32r
32bb-
32aa
32bb-
32r
32ff
32ee
32ff
32r
32dd
32cc#
32dd
32r
32b-
32a
32b-
=140
8a
16r
16ee-
16dd
16cc
16b-
16a
=141
16cc
16b-
16r
16ff
16ee-
16dd
16cc
16b
=142
16.cc
32dd
32dd
32ee-
32ff
32gg
8b-
8cc
=143
16r
32fff
32ddd
32bb-
32ff
32dd
32b-
[4a-
=144
16a-]
16g
16r
16gg
16r
16ff
16r
16a
=145
16r
32ff
32dd
32b-
32f
32d
32B-
4r
=146
8r
16r
16g
16r
16f
16r
16a
=147
8b-
16r
16dd
16cc
16cc
16r
16ee-
=148
16dd
16dd
16r
16aa-
16gg
16gg
16r
16aa
=149
4aa
8bb-
8r
==
*-
